img/youtube.svg

<svg width="48" height="48" viewBox="0 0 48 48" fill="none" xmlns="http://www.w3.org/2000/svg">
<path d="M0 24C0 10.7452 10.7452 0 24 0C37.2548 0 48 10.7452 48 24C48 37.2548 37.2548 48 24 48C10.7452 48 0 37.2548 0 24Z" fill="#F6F6F8"/>
<path d="M35.4965 18.2052C35.3574 17.707 35.0921 17.253 34.7264 16.8873C34.3606 16.5215 33.9067 16.2563 33.4085 16.1172C31.5384 15.6162 24.0124 15.6162 24.0124 15.6162C24.0124 15.6162 16.5055 15.6062 14.6164 16.1172C14.1182 16.2563 13.6643 16.5215 13.2985 16.8873C12.9327 17.253 12.6675 17.707 12.5284 18.2052C12.174 20.1197 11.9992 22.0632 12.0064 24.0102C12.0006 25.9499 12.1753 27.886 12.5284 29.7932C12.6675 30.2914 12.9327 30.7455 13.2985 31.1113C13.6643 31.477 14.1182 31.7421 14.6164 31.8812C16.4844 32.3833 24.0124 32.3833 24.0124 32.3833C24.0124 32.3833 31.5184 32.3833 33.4085 31.8812C33.9067 31.7421 34.3606 31.477 34.7264 31.1113C35.0921 30.7455 35.3574 30.2914 35.4965 29.7932C35.8422 27.8853 36.0096 25.9493 35.9965 24.0102C36.011 22.0639 35.8435 20.1204 35.4965 18.2052ZM21.6104 27.6012V20.4082L27.8744 24.0102L21.6104 27.6012Z" fill="#1C1C33"/>
</svg>

<svg width="48" height="48" fill="none" xmlns="http://www.w3.org/2000/svg"><path d="M0 24C0 10.745 10.745 0 24 0s24 10.745 24 24-10.745 24-24 24S0 37.255 0 24z" fill="#F6F6F8"/><path d="M35.496 18.205a3.008 3.008 0 00-2.088-2.088c-1.87-.5-9.396-.5-9.396-.5s-7.506-.01-9.396.5a3.007 3.007 0 00-2.088 2.088 31.257 31.257 0 00-.522 5.805c-.005 1.94.17 3.876.522 5.783a3.008 3.008 0 002.088 2.088c1.868.502 9.396.502 9.396.502s7.506 0 9.396-.502a3.008 3.008 0 002.088-2.088 31.15 31.15 0 00.5-5.783 31.256 31.256 0 00-.5-5.805zM21.61 27.601v-7.193l6.264 3.602-6.264 3.591z" fill="#1C1C33"/></svg>
